Activated Sludge 1.svg

<?xml version="1.0" encoding="UTF-8" standalone="no"?>
<!-- Created with Inkscape (http://www.inkscape.org/) -->
<svg
   xmlns:dc="http://purl.org/dc/elements/1.1/"
   xmlns:cc="http://creativecommons.org/ns#"
   xmlns:rdf="http://www.w3.org/1999/02/22-rdf-syntax-ns#"
   xmlns:svg="http://www.w3.org/2000/svg"
   xmlns="http://www.w3.org/2000/svg"
   xmlns:xlink="http://www.w3.org/1999/xlink"
   xmlns:sodipodi="http://sodipodi.sourceforge.net/DTD/sodipodi-0.dtd"
   xmlns:inkscape="http://www.inkscape.org/namespaces/inkscape"
   width="330"
   height="235.00002"
   id="svg2"
   inkscape:label="Pozadí"
   sodipodi:version="0.32"
   inkscape:version="0.46"
   sodipodi:docname="Activated_Sludge_1.svg"
   inkscape:output_extension="org.inkscape.output.svg.inkscape"
   version="1.0">
  <defs
     id="defs3">
    <linearGradient
       id="linearGradient3216">
      <stop
         style="stop-color:#45fdff;stop-opacity:1"
         offset="0"
         id="stop3218" />
      <stop
         style="stop-color:#000000;stop-opacity:1;"
         offset="1"
         id="stop3220" />
    </linearGradient>
    <marker
       inkscape:stockid="Arrow1Mend"
       orient="auto"
       refY="0"
       refX="0"
       id="Arrow1Mend"
       style="overflow:visible">
      <path
         id="path3311"
         d="M 0,0 L 5,-5 L -12.5,0 L 5,5 L 0,0 z"
         style="fill-rule:evenodd;stroke:#000000;stroke-width:1pt;marker-start:none"
         transform="matrix(-0.4,0,0,-0.4,-4,0)" />
    </marker>
    <marker
       inkscape:stockid="Arrow2Mend"
       orient="auto"
       refY="0"
       refX="0"
       id="Arrow2Mend"
       style="overflow:visible">
      <path
         id="path3329"
         style="font-size:12px;fill-rule:evenodd;stroke-width:0.625;stroke-linejoin:round"
         d="M 8.7185878,4.0337352 L -2.2072895,0.016013256 L 8.7185884,-4.0017078 C 6.97309,-1.6296469 6.9831476,1.6157441 8.7185878,4.0337352 z"
         transform="scale(-0.6,-0.6)" />
    </marker>
    <marker
       inkscape:stockid="Arrow2Lend"
       orient="auto"
       refY="0"
       refX="0"
       id="Arrow2Lend"
       style="overflow:visible">
      <path
         id="path3323"
         style="font-size:12px;fill-rule:evenodd;stroke-width:0.625;stroke-linejoin:round"
         d="M 8.7185878,4.0337352 L -2.2072895,0.016013256 L 8.7185884,-4.0017078 C 6.97309,-1.6296469 6.9831476,1.6157441 8.7185878,4.0337352 z"
         transform="matrix(-1.1,0,0,-1.1,-1.1,0)" />
    </marker>
    <marker
       inkscape:stockid="Arrow1Lend"
       orient="auto"
       refY="0"
       refX="0"
       id="Arrow1Lend"
       style="overflow:visible">
      <path
         id="path3305"
         d="M 0,0 L 5,-5 L -12.5,0 L 5,5 L 0,0 z"
         style="fill-rule:evenodd;stroke:#000000;stroke-width:1pt;marker-start:none"
         transform="matrix(-0.8,0,0,-0.8,-10,0)" />
    </marker>
    <inkscape:perspective
       sodipodi:type="inkscape:persp3d"
       inkscape:vp_x="0 : 526.18109 : 1"
       inkscape:vp_y="0 : 1000 : 0"
       inkscape:vp_z="744.09448 : 526.18109 : 1"
       inkscape:persp3d-origin="372.04724 : 350.78739 : 1"
       id="perspective9" />
    <inkscape:perspective
       id="perspective2497"
       inkscape:persp3d-origin="372.04724 : 350.78739 : 1"
       inkscape:vp_z="744.09448 : 526.18109 : 1"
       inkscape:vp_y="0 : 1000 : 0"
       inkscape:vp_x="0 : 526.18109 : 1"
       sodipodi:type="inkscape:persp3d" />
    <linearGradient
       inkscape:collect="always"
       xlink:href="#linearGradient3216"
       id="linearGradient3222"
       x1="142.50023"
       y1="227.40666"
       x2="142.50023"
       y2="237.36853"
       gradientUnits="userSpaceOnUse" />
  </defs>
  <sodipodi:namedview
     id="base"
     pagecolor="#ffffff"
     bordercolor="#666666"
     borderopacity="1.0"
     inkscape:pageopacity="0.0"
     inkscape:pageshadow="2"
     inkscape:zoom="1.4"
     inkscape:cx="-0.49739557"
     inkscape:cy="122.30536"
     inkscape:document-units="px"
     inkscape:current-layer="layer1"
     showgrid="true"
     guidetolerance="12"
     inkscape:snap-intersection-line-segments="true"
     objecttolerance="10"
     gridtolerance="10"
     inkscape:window-width="1280"
     inkscape:window-height="946"
     inkscape:window-x="0"
     inkscape:window-y="22">
    <inkscape:grid
       type="xygrid"
       id="grid3281"
       visible="true"
       enabled="true"
       spacingx="5px"
       spacingy="5px"
       dotted="false" />
  </sodipodi:namedview>
  <metadata
     id="metadata6">
    <rdf:RDF>
      <cc:Work
         rdf:about="">
        <dc:format>image/svg+xml</dc:format>
        <dc:type
           rdf:resource="http://purl.org/dc/dcmitype/StillImage" />
      </cc:Work>
    </rdf:RDF>
  </metadata>
  <g
     inkscape:label="Vrstva 1"
     inkscape:groupmode="layer"
     id="layer1"
     style="display:inline"
     transform="translate(-105.98145,-182.26453)">
    <path
       style="fill:none;fill-rule:evenodd;stroke:#000000;stroke-width:1;stroke-linecap:butt;stroke-linejoin:miter;marker-end:url(#Arrow1Mend);stroke-miterlimit:4;stroke-dasharray:none;stroke-opacity:1"
       d="M 130,212.36218 L 130,242.36218 L 175,242.36218 L 175,242.36218 L 175,242.36218"
       id="path3297"
       transform="translate(25.98145,24.72378)" />
    <path
       style="opacity:1;fill:none;fill-opacity:1;fill-rule:evenodd;stroke:#000000;stroke-width:1;stroke-linecap:butt;stroke-linejoin:miter;marker:none;marker-start:none;marker-mid:none;marker-end:url(#Arrow1Mend);stroke-miterlimit:4;stroke-dasharray:none;stroke-dashoffset:0;stroke-opacity:1;visibility:visible;display:inline;overflow:visible;enable-background:accumulate"
       d="M 245,242.36218 L 275,242.36218"
       id="path2516"
       transform="translate(25.98145,24.72378)" />
    <rect
       style="opacity:1;fill:#800000;fill-opacity:1;fill-rule:nonzero;stroke:#000000;stroke-width:0.23101677;stroke-linecap:square;stroke-linejoin:miter;marker:none;marker-start:none;marker-mid:none;marker-end:none;stroke-miterlimit:6.19999981;stroke-dasharray:none;stroke-dashoffset:3.63258683;stroke-opacity:1;visibility:visible;display:inline;overflow:visible;enable-background:accumulate"
       id="rect3293"
       width="15"
       height="10"
       x="135"
       y="227.36218"
       transform="matrix(4.666525,0,0,4.0153127,-428.9973,-665.8443)" />
    <path
       style="opacity:1;fill:none;fill-opacity:1;fill-rule:evenodd;stroke:#000000;stroke-width:1;stroke-linecap:butt;stroke-linejoin:miter;marker:none;marker-start:none;marker-mid:none;marker-end:url(#Arrow1Mend);stroke-miterlimit:4;stroke-dasharray:none;stroke-dashoffset:0;stroke-opacity:1;visibility:visible;display:inline;overflow:visible;enable-background:accumulate"
       d="M 345,227.36218 L 370,227.36218 L 370,192.36218"
       id="path2518"
       transform="translate(25.98145,39.72378)" />
    <rect
       transform="matrix(4.666525,0,0,4.0153127,-328.99942,-665.8443)"
       y="227.36218"
       x="135"
       height="10"
       width="15"
       id="rect3295"
       style="opacity:1;fill:url(#linearGradient3222);fill-opacity:1;fill-rule:nonzero;stroke:#000000;stroke-width:0.23101677;stroke-linecap:square;stroke-linejoin:miter;marker:none;marker-start:none;marker-mid:none;marker-end:none;stroke-miterlimit:6.19999981;stroke-dasharray:none;stroke-dashoffset:3.63258683;stroke-opacity:1;visibility:visible;display:inline;overflow:visible;enable-background:accumulate" />
    <path
       style="opacity:1;fill:none;fill-opacity:1;fill-rule:evenodd;stroke:#000000;stroke-width:1;stroke-linecap:butt;stroke-linejoin:miter;marker:none;marker-start:none;marker-mid:none;marker-end:url(#Arrow1Mend);stroke-miterlimit:4;stroke-dasharray:none;stroke-dashoffset:0;stroke-opacity:1;visibility:visible;display:inline;overflow:visible;enable-background:accumulate"
       d="M 310,262.36218 L 310,352.36218"
       id="path2520"
       transform="translate(25.98145,24.72378)"
       sodipodi:nodetypes="cc" />
    <path
       style="opacity:1;fill:none;fill-opacity:1;fill-rule:evenodd;stroke:#000000;stroke-width:1;stroke-linecap:butt;stroke-linejoin:miter;marker:none;marker-start:none;marker-mid:none;marker-end:url(#Arrow1Mend);stroke-miterlimit:4;stroke-dasharray:none;stroke-dashoffset:0;stroke-opacity:1;visibility:visible;display:inline;overflow:visible;enable-background:accumulate"
       d="M 270,292.36218 L 155,292.36218 L 155,242.36218"
       id="path2524"
       sodipodi:nodetypes="ccc"
       transform="translate(25.98145,24.72378)" />
    <path
       id="path2526"
       d="M 310,302.36218 L 270,302.36218"
       style="opacity:1;fill:none;fill-opacity:1;fill-rule:evenodd;stroke:#000000;stroke-width:1;stroke-linecap:butt;stroke-linejoin:miter;marker:none;marker-start:none;marker-mid:none;marker-end:url(#Arrow1Mend);stroke-miterlimit:4;stroke-dasharray:none;stroke-dashoffset:0;stroke-opacity:1;visibility:visible;display:inline;overflow:visible;enable-background:accumulate"
       sodipodi:nodetypes="cc"
       transform="translate(25.98145,14.72378)" />
    <text
       xml:space="preserve"
       style="font-size:12px;font-style:normal;font-weight:normal;text-align:center;text-anchor:middle;fill:#000000;fill-opacity:1;stroke:none;stroke-width:1px;stroke-linecap:butt;stroke-linejoin:miter;stroke-opacity:1;font-family:Bitstream Vera Sans"
       x="130.30968"
       y="202.06628"
       id="text2528"
       transform="translate(25.185933,30.019676)"><tspan
         sodipodi:role="line"
         id="tspan2530"
         x="130.30968"
         y="202.06628"
         style="font-size:10px">Raw Water</tspan></text>
    <text
       xml:space="preserve"
       style="font-size:10px;font-style:normal;font-variant:normal;font-weight:normal;font-stretch:normal;text-indent:0;text-align:center;text-decoration:none;line-height:normal;letter-spacing:normal;word-spacing:normal;text-transform:none;direction:ltr;block-progression:tb;writing-mode:lr-tb;text-anchor:middle;opacity:1;fill:#000000;fill-opacity:1;fill-rule:nonzero;stroke:none;stroke-width:1px;stroke-linecap:butt;stroke-linejoin:miter;marker:none;marker-start:none;marker-mid:none;marker-end:none;stroke-miterlimit:4;stroke-dasharray:none;stroke-dashoffset:0;stroke-opacity:1;visibility:visible;display:inline;overflow:visible;enable-background:accumulate;font-family:Bitstream Vera Sans;-inkscape-font-specification:Bitstream Vera Sans"
       x="221.47594"
       y="315.20337"
       id="text2532"
       transform="translate(24.280904,12.061176)"><tspan
         sodipodi:role="line"
         id="tspan2534"
         x="221.47594"
         y="315.20337">Recycle Sludge</tspan></text>
    <text
       xml:space="preserve"
       style="font-size:10px;font-style:normal;font-variant:normal;font-weight:normal;font-stretch:normal;text-indent:0;text-align:center;text-decoration:none;line-height:normal;letter-spacing:normal;word-spacing:normal;text-transform:none;direction:ltr;block-progression:tb;writing-mode:lr-tb;text-anchor:middle;opacity:1;fill:#000000;fill-opacity:1;fill-rule:nonzero;stroke:none;stroke-width:1px;stroke-linecap:butt;stroke-linejoin:miter;marker:none;marker-start:none;marker-mid:none;marker-end:none;stroke-miterlimit:4;stroke-dasharray:none;stroke-dashoffset:0;stroke-opacity:1;visibility:visible;display:inline;overflow:visible;enable-background:accumulate;font-family:Bitstream Vera Sans;-inkscape-font-specification:Bitstream Vera Sans"
       x="54.043159"
       y="267.47366"
       id="text2536"
       transform="translate(181.90411,-50.387703)"><tspan
         sodipodi:role="line"
         id="tspan2538"
         x="54.043159"
         y="267.47366">Air</tspan></text>
    <text
       xml:space="preserve"
       style="font-size:10px;font-style:normal;font-variant:normal;font-weight:bold;font-stretch:normal;text-indent:0;text-align:center;text-decoration:none;line-height:normal;letter-spacing:normal;word-spacing:normal;text-transform:none;direction:ltr;block-progression:tb;writing-mode:lr-tb;text-anchor:middle;opacity:1;fill:#000000;fill-opacity:1;fill-rule:nonzero;stroke:none;stroke-width:1px;stroke-linecap:butt;stroke-linejoin:miter;marker:none;marker-start:none;marker-mid:none;marker-end:none;stroke-miterlimit:4;stroke-dasharray:none;stroke-dashoffset:0;stroke-opacity:1;visibility:visible;display:inline;overflow:visible;enable-background:accumulate;font-family:Bitstream Vera Sans;-inkscape-font-specification:Bitstream Vera Sans"
       x="43.436558"
       y="310.40515"
       id="text2540"
       transform="translate(192.43015,-13.319191)"><tspan
         sodipodi:role="line"
         id="tspan2542"
         x="43.436558"
         y="310.40515">Aeration Tank</tspan></text>
    <text
       xml:space="preserve"
       style="font-size:10px;font-style:normal;font-variant:normal;font-weight:bold;font-stretch:normal;text-indent:0;text-align:center;text-decoration:none;line-height:normal;letter-spacing:normal;word-spacing:normal;text-transform:none;direction:ltr;block-progression:tb;writing-mode:lr-tb;text-anchor:middle;opacity:1;fill:#000000;fill-opacity:1;fill-rule:nonzero;stroke:none;stroke-width:1px;stroke-linecap:butt;stroke-linejoin:miter;marker:none;marker-start:none;marker-mid:none;marker-end:none;stroke-miterlimit:4;stroke-dasharray:none;stroke-dashoffset:0;stroke-opacity:1;visibility:visible;display:inline;overflow:visible;enable-background:accumulate;font-family:Bitstream Vera Sans;-inkscape-font-specification:Bitstream Vera Sans"
       x="42.426407"
       y="347.2757"
       id="text2544"
       transform="translate(293.32555,-105.18974)"><tspan
         sodipodi:role="line"
         id="tspan2546"
         x="42.426407"
         y="347.2757">Clarifier-Settler</tspan></text>
    <text
       xml:space="preserve"
       style="font-size:10px;font-style:normal;font-variant:normal;font-weight:normal;font-stretch:normal;text-indent:0;text-align:center;text-decoration:none;line-height:normal;letter-spacing:normal;word-spacing:normal;text-transform:none;direction:ltr;block-progression:tb;writing-mode:lr-tb;text-anchor:middle;opacity:1;fill:#000000;fill-opacity:1;fill-rule:nonzero;stroke:none;stroke-width:1px;stroke-linecap:butt;stroke-linejoin:miter;marker:none;marker-start:none;marker-mid:none;marker-end:none;stroke-miterlimit:4;stroke-dasharray:none;stroke-dashoffset:0;stroke-opacity:1;visibility:visible;display:inline;overflow:visible;enable-background:accumulate;font-family:Bitstream Vera Sans;-inkscape-font-specification:Bitstream Vera Sans"
       x="19.192898"
       y="366.4686"
       id="text2548"
       transform="translate(377.2573,-151.5255)"><tspan
         sodipodi:role="line"
         id="tspan2550"
         x="19.192898"
         y="366.4686">Treated</tspan><tspan
         sodipodi:role="line"
         x="19.192898"
         y="378.9686"
         id="tspan2552">Water</tspan></text>
    <text
       xml:space="preserve"
       style="font-size:10px;font-style:normal;font-variant:normal;font-weight:normal;font-stretch:normal;text-indent:0;text-align:center;text-decoration:none;line-height:normal;letter-spacing:normal;word-spacing:normal;text-transform:none;direction:ltr;block-progression:tb;writing-mode:lr-tb;text-anchor:middle;opacity:1;fill:#000000;fill-opacity:1;fill-rule:nonzero;stroke:none;stroke-width:1px;stroke-linecap:butt;stroke-linejoin:miter;marker:none;marker-start:none;marker-mid:none;marker-end:none;stroke-miterlimit:4;stroke-dasharray:none;stroke-dashoffset:0;stroke-opacity:1;visibility:visible;display:inline;overflow:visible;enable-background:accumulate;font-family:Bitstream Vera Sans;-inkscape-font-specification:Bitstream Vera Sans"
       x="27.274118"
       y="402.83411"
       id="text2554"
       transform="matrix(0,-1,1,0,-70.497676,372.10213)"><tspan
         sodipodi:role="line"
         id="tspan2556"
         x="27.274118"
         y="402.83411">Waste</tspan><tspan
         sodipodi:role="line"
         x="27.274118"
         y="415.33411"
         id="tspan2558">Sludge</tspan></text>
    <text
       xml:space="preserve"
       style="font-size:10px;font-style:normal;font-variant:normal;font-weight:normal;font-stretch:normal;text-indent:0;text-align:center;text-decoration:none;line-height:normal;letter-spacing:normal;word-spacing:normal;text-transform:none;direction:ltr;block-progression:tb;writing-mode:lr-tb;text-anchor:middle;opacity:1;fill:#000000;fill-opacity:1;fill-rule:nonzero;stroke:none;stroke-width:1px;stroke-linecap:butt;stroke-linejoin:miter;marker:none;marker-start:none;marker-mid:none;marker-end:none;stroke-miterlimit:4;stroke-dasharray:none;stroke-dashoffset:0;stroke-opacity:1;visibility:visible;display:inline;overflow:visible;enable-background:accumulate;font-family:Bitstream Vera Sans;-inkscape-font-specification:Bitstream Vera Sans"
       x="35.355339"
       y="444.75543"
       id="text2560"
       transform="translate(300.76283,-52.669472)"><tspan
         sodipodi:role="line"
         id="tspan2562"
         x="35.355339"
         y="444.75543"
         style="writing-mode:lr-tb">To Sludge Treatment</tspan></text>
    <path
       style="opacity:1;fill:#ff0000;fill-opacity:1;fill-rule:nonzero;stroke:#800000;stroke-width:1;stroke-linecap:square;stroke-linejoin:miter;marker:none;marker-start:none;marker-mid:none;marker-end:none;stroke-miterlimit:6.19999981;stroke-dasharray:none;stroke-dashoffset:15.72434228;stroke-opacity:1;visibility:visible;display:inline;overflow:visible;enable-background:accumulate"
       d="M 205,197.36218 L 215,197.36218 L 215,232.18361 L 220,232.36218 L 210,242.36218 L 200,232.36218 L 205,232.18361 L 205,197.36218 z"
       id="rect2568"
       sodipodi:nodetypes="cccccccc"
       transform="translate(25.98145,24.90235)" />
  </g>
</svg>

<?xml version="1.0"?>
<svg xmlns:rdf="http://www.w3.org/1999/02/22-rdf-syntax-ns#" xmlns="http://www.w3.org/2000/svg" xmlns:cc="http://creativecommons.org/ns#" xmlns:xlink="http://www.w3.org/1999/xlink" xmlns:dc="http://purl.org/dc/elements/1.1/" id="svg2" height="235" width="330" version="1.0">
 <defs id="defs3">
  <marker id="Arrow1Mend" refY="0" refX="0" orient="auto" overflow="visible">
   <path id="path3311" d="m0 0l5-5-17.5 5 17.5 5-5-5z" fill-rule="evenodd" transform="matrix(-.4 0 0 -.4 -4 0)" stroke="#000" stroke-width="1pt"/>
  </marker>
  <linearGradient id="linearGradient3222" y2="237.37" gradientUnits="userSpaceOnUse" x2="142.5" y1="227.41" x1="142.5">
   <stop id="stop3218" stop-color="#45fdff" offset="0"/>
   <stop id="stop3220" offset="1"/>
  </linearGradient>
 </defs>
 <g id="layer1" transform="translate(-105.98 -182.26)">
  <path id="path3297" marker-end="url(#Arrow1Mend)" d="m130 212.36v30h45" transform="translate(25.981 24.724)" stroke="#000" fill="none"/>
  <path id="path2516" marker-end="url(#Arrow1Mend)" d="m245 242.36h30" transform="translate(25.981 24.724)" stroke="#000" marker="none" fill="none"/>
  <rect id="rect3293" height="10" stroke="#000" stroke-linecap="square" stroke-width=".23102" fill="#800000" transform="matrix(4.6665 0 0 4.0153 -429 -665.84)" width="15" stroke-miterlimit="6.2" stroke-dashoffset="3.6326" y="227.36" x="135"/>
  <path id="path2518" marker-end="url(#Arrow1Mend)" d="m345 227.36h25v-35" transform="translate(25.981 39.724)" stroke="#000" marker="none" fill="none"/>
  <rect id="rect3295" height="10" stroke="#000" stroke-linecap="square" stroke-width=".23102" fill="url(#linearGradient3222)" transform="matrix(4.6665 0 0 4.0153 -329 -665.84)" width="15" stroke-miterlimit="6.2" stroke-dashoffset="3.6326" y="227.36" x="135"/>
  <path id="path2520" marker-end="url(#Arrow1Mend)" d="m310 262.36v90" transform="translate(25.981 24.724)" stroke="#000" marker="none" fill="none"/>
  <path id="path2524" marker-end="url(#Arrow1Mend)" d="m270 292.36h-115v-50" transform="translate(25.981 24.724)" stroke="#000" marker="none" fill="none"/>
  <path id="path2526" marker-end="url(#Arrow1Mend)" d="m310 302.36h-40" transform="translate(25.981 14.724)" stroke="#000" marker="none" fill="none"/>
  <text id="text2528" style="text-anchor:middle;text-align:center" xml:space="preserve" transform="translate(25.186 30.02)" font-size="12px" y="202.06628" x="130.30968" font-family="Bitstream Vera Sans" fill="#000000">
      <tspan id="tspan2530" font-size="10px" y="202.06628" x="130.30968">Raw Water</tspan>
    </text>
  <text id="text2532" font-size="10px" xml:space="preserve" fill="#000000" style="block-progression:tb;text-anchor:middle;text-indent:0;text-transform:none;text-align:center" transform="translate(24.281 12.061)" font-family="Bitstream Vera Sans" line-height="normal" y="315.20337" x="221.47594">
      <tspan id="tspan2534" x="221.47594" y="315.20337">Recycle Sludge</tspan>
    </text>
  <text id="text2536" font-size="10px" xml:space="preserve" fill="#000000" style="block-progression:tb;text-anchor:middle;text-indent:0;text-transform:none;text-align:center" transform="translate(181.9 -50.388)" font-family="Bitstream Vera Sans" line-height="normal" y="267.47366" x="54.043159">
      <tspan id="tspan2538" x="54.043159" y="267.47366">Air</tspan>
    </text>
  <text id="text2540" font-size="10px" xml:space="preserve" fill="#000000" style="block-progression:tb;text-anchor:middle;text-indent:0;text-transform:none;text-align:center" transform="translate(192.43 -13.319)" font-weight="bold" font-family="Bitstream Vera Sans" line-height="normal" y="310.40515" x="43.436558">
      <tspan id="tspan2542" x="43.436558" y="310.40515">Aeration Tank</tspan>
    </text>
  <text id="text2544" font-size="10px" xml:space="preserve" fill="#000000" style="block-progression:tb;text-anchor:middle;text-indent:0;text-transform:none;text-align:center" transform="translate(293.33 -105.19)" font-weight="bold" font-family="Bitstream Vera Sans" line-height="normal" y="347.2757" x="42.426407">
      <tspan id="tspan2546" x="42.426407" y="347.2757">Clarifier-Settler</tspan>
    </text>
  <text id="text2548" font-size="10px" xml:space="preserve" fill="#000000" style="block-progression:tb;text-anchor:middle;text-indent:0;text-transform:none;text-align:center" transform="translate(377.26 -151.53)" font-family="Bitstream Vera Sans" line-height="normal" y="366.4686" x="19.192898">
      <tspan id="tspan2550" x="19.192898" y="366.4686">Treated</tspan>
      <tspan id="tspan2552" x="19.192898" y="378.9686">Water</tspan>
    </text>
  <text id="text2554" font-size="10px" xml:space="preserve" fill="#000000" style="block-progression:tb;text-anchor:middle;text-indent:0;text-transform:none;text-align:center" transform="matrix(0 -1 1 0 -70.498 372.1)" font-family="Bitstream Vera Sans" line-height="normal" y="402.83411" x="27.274118">
      <tspan id="tspan2556" x="27.274118" y="402.83411">Waste</tspan>
      <tspan id="tspan2558" x="27.274118" y="415.33411">Sludge</tspan>
    </text>
  <text id="text2560" font-size="10px" xml:space="preserve" fill="#000000" style="block-progression:tb;text-anchor:middle;text-indent:0;text-transform:none;text-align:center" transform="translate(300.76 -52.669)" font-family="Bitstream Vera Sans" line-height="normal" y="444.75543" x="35.355339">
      <tspan id="tspan2562" x="35.355339" y="444.75543">To Sludge Treatment</tspan>
    </text>
  <path id="rect2568" stroke="#800000" stroke-linecap="square" fill="#f00" transform="translate(25.981 24.902)" stroke-miterlimit="6.2" d="m205 197.36h10v34.82l5 0.18-10 10-10-10 5-0.18v-34.82z" stroke-dashoffset="15.724"/>
 </g>
 <metadata>
  <rdf:RDF>
   <cc:Work>
    <dc:format>image/svg+xml</dc:format>
    <dc:type rdf:resource="http://purl.org/dc/dcmitype/StillImage"/>
    <cc:license rdf:resource="http://creativecommons.org/licenses/publicdomain/"/>
    <dc:publisher>
     <cc:Agent rdf:about="http://openclipart.org/">
      <dc:title>Openclipart</dc:title>
     </cc:Agent>
    </dc:publisher>
   </cc:Work>
   <cc:License rdf:about="http://creativecommons.org/licenses/publicdomain/">
    <cc:permits rdf:resource="http://creativecommons.org/ns#Reproduction"/>
    <cc:permits rdf:resource="http://creativecommons.org/ns#Distribution"/>
    <cc:permits rdf:resource="http://creativecommons.org/ns#DerivativeWorks"/>
   </cc:License>
  </rdf:RDF>
 </metadata>
</svg>
